images/individual.svg

<svg height="95" viewBox="0 0 95 95" width="95" xmlns="http://www.w3.org/2000/svg"><g fill="none" fill-rule="evenodd" transform=""><path d="m82.3973481 46.2964462c.7572943 19.1845886-14.1811551 35.3505222-33.3657437 36.1075158-19.1845886.7572943-35.3508228-14.1808544-36.1078164-33.365443-.7572943-19.1845886 14.181155-35.3505222 33.3657436-36.1078165 19.1845887-.7572943 35.3505222 14.1811551 36.1078165 33.3657437z" stroke="#162842" stroke-linecap="round" stroke-linejoin="round" stroke-width="2.1"/><path d="m47.6605981 27.3082911c-3.4464557 0-6.6866772-1.3420253-9.1236076-3.7789557-2.4369304-2.4369303-3.7789557-5.6768512-3.7789557-9.1233069 0-3.4467563 1.3420253-6.68667723 3.7789557-9.12360761s5.6771519-3.7789557 9.1236076-3.7789557 6.6863766 1.34202532 9.123307 3.7789557c2.437231 2.43693038 3.7792563 5.67685131 3.7792563 9.12360761 0 3.4464557-1.3420253 6.6863766-3.7792563 9.1233069-2.4369304 2.4369304-5.6768513 3.7789557-9.123307 3.7789557" fill="#5cd8ff"/><path d="m47.6605981.00015032c-3.8478006 0-7.4656171 1.49835443-10.1863449 4.21938291-5.6170254 5.61672468-5.6167247 14.75596517 0 20.37268987 2.7207278 2.7210285 6.3385443 4.2193829 10.1863449 4.2193829s7.4656171-1.4983544 10.1863449-4.2193829c5.6167247-5.6167247 5.6167247-14.75596519 0-20.37268987-2.7207278-2.72102848-6.3385443-4.21938291-10.1863449-4.21938291m0 3.00632911c2.9173418 0 5.8346835 1.11294304 8.0605696 3.33882911 4.4517722 4.45177216 4.4517722 11.66936706 0 16.12113926-2.2258861 2.2258861-5.1432278 3.3388291-8.0605696 3.3388291s-5.8346835-1.112943-8.0605696-3.3388291c-4.4517722-4.4517722-4.4517722-11.6693671 0-16.12113926 2.2258861-2.22588607 5.1432278-3.33882911 8.0605696-3.33882911" fill="#fff"/><path d="m80.4595285 60.1074921c-3.4464557 0-6.6863766-1.3420253-9.123307-3.7789557-5.0307911-5.0310918-5.0307911-13.2164241 0-18.2469146 2.4369304-2.4369303 5.6768513-3.7792563 9.123307-3.7792563s6.6866772 1.342326 9.1236076 3.7792563c5.0304905 5.0304905 5.0304905 13.2158228 0 18.2469146-2.4369304 2.4369304-5.6771519 3.7789557-9.1236076 3.7789557" fill="#5cd8ff"/><path d="m80.4595285 32.799231c-3.8478007 0-7.4656171 1.4983544-10.186345 4.2193829-2.7210284 2.7207279-4.2193829 6.3385443-4.2193829 10.186345 0 3.8478006 1.4983545 7.4653164 4.2193829 10.1863449 2.7207279 2.7210285 6.3385443 4.2193829 10.186345 4.2193829 3.8478006 0 7.4656171-1.4983544 10.1863449-4.2193829 2.7210285-2.7210285 4.2193829-6.3385443 4.2193829-10.1863449 0-3.8478007-1.4983544-7.4656171-4.2193829-10.186345-2.7207278-2.7210285-6.3385443-4.2193829-10.1863449-4.2193829m0 3.0063291c2.9173418 0 5.8346835 1.1129431 8.0605696 3.3388291 4.4517722 4.4517722 4.4517722 11.6693671 0 16.1211393-2.2258861 2.2258861-5.1432278 3.3388291-8.0605696 3.3388291s-5.8346836-1.112943-8.0605696-3.3388291c-4.4517722-4.4517722-4.4517722-11.6693671 0-16.1211393 2.225886-2.225886 5.1432278-3.3388291 8.0605696-3.3388291" fill="#fff"/><path d="m14.3989937 60.8050807c-3.4464557 0-6.68667724-1.3420253-9.12360762-3.7789557s-3.7789557-5.6768513-3.7789557-9.123307c0-3.4467563 1.34202532-6.6866772 3.7789557-9.1236076 2.43693038-2.4369303 5.67715192-3.7789557 9.12360762-3.7789557s6.6863766 1.3420254 9.1233069 3.7789557c2.437231 2.4369304 3.7792564 5.6768513 3.7792564 9.1236076 0 3.4464557-1.3420254 6.6863766-3.7792564 9.123307-2.4369303 2.4369304-5.6768512 3.7789557-9.1233069 3.7789557" fill="#5cd8ff"/><path d="m14.3989937 33.4969399c-3.8478007 0-7.46561712 1.4983544-10.18634497 4.2193829-5.61672468 5.6167247-5.61672468 14.7559652 0 20.3726899 2.72072785 2.7210284 6.33854427 4.2193829 10.18634497 4.2193829 3.8478006 0 7.4656171-1.4983545 10.1863449-4.2193829 5.6167247-5.6167247 5.6167247-14.7559652 0-20.3726899-2.7207278-2.7210285-6.3385443-4.2193829-10.1863449-4.2193829m0 3.0063291c2.9173417 0 5.8346835 1.112943 8.0605696 3.3388291 4.4517721 4.4517722 4.4517721 11.6693671 0 16.1211392-2.2258861 2.2258861-5.1432279 3.3388292-8.0605696 3.3388292-2.9173418 0-5.83468357-1.1129431-8.06056965-3.3388292-4.45177215-4.4517721-4.45177215-11.669367 0-16.1211392 2.22588608-2.2258861 5.14322785-3.3388291 8.06056965-3.3388291" fill="#fff"/><path d="m47.1980744 93.3689763c-3.4464557 0-6.6866772-1.3420254-9.1236076-3.7789557-5.0307912-5.0310918-5.0304905-13.2164241 0-18.246614 2.4369304-2.437231 5.6771519-3.7792563 9.1236076-3.7792563s6.6863765 1.3420253 9.1236076 3.7792563c5.0304905 5.0301899 5.0304905 13.2155222 0 18.246614-2.4372311 2.4369303-5.6771519 3.7789557-9.1236076 3.7789557" fill="#5cd8ff"/><path d="m47.1980744 66.0608655c-3.8478007 0-7.4656171 1.4983544-10.186345 4.2193829-2.7210285 2.7207279-4.2193829 6.3385443-4.2193829 10.1860443 0 3.8481013 1.4983544 7.4656171 4.2193829 10.1866456 2.7207279 2.7207278 6.3385443 4.2190823 10.186345 4.2190823 3.8478006 0 7.4656171-1.4983545 10.1863449-4.2193829 2.7210285-2.7207279 4.2193829-6.3382437 4.2193829-10.186345 0-3.8475-1.4983544-7.4653164-4.2193829-10.1860443-2.7207278-2.7210285-6.3385443-4.2193829-10.1863449-4.2193829m0 3.0063291c2.9173417 0 5.8346835 1.1129431 8.0605696 3.3388291 4.4517721 4.4517722 4.4517721 11.6693671 0 16.1211393-2.2258861 2.2255854-5.1432279 3.3385285-8.0605696 3.3385285-2.9173418 0-5.8346836-1.1129431-8.0605697-3.3385285-4.4517721-4.4517722-4.4517721-11.6693671 0-16.1211393 2.2258861-2.225886 5.1432279-3.3388291 8.0605697-3.3388291" fill="#fff"/><path d="m75.1638196 39.9100411c-.5844304 0-1.0585285.4737975-1.0585285 1.0585285 0 .5841298.4740981 1.0582279 1.0585285 1.0582279s1.0585285-.4740981 1.0585285-1.0582279c0-.584731-.4740981-1.0585285-1.0585285-1.0585285" fill="#162842"/><path d="m80.8124114 40.9684193c-.5844304 0-1.0585285.4737975-1.0585285 1.0585285 0 .5841297.4740981 1.0582278 1.0585285 1.0582278s1.0585285-.4740981 1.0585285-1.0582278c0-.584731-.4740981-1.0585285-1.0585285-1.0585285" fill="#162842"/><path d="m72.3057627 44.5397579s3.68125 4.0898101 11.3149208 1.834462" stroke="#162842" stroke-linecap="round" stroke-linejoin="round" stroke-width="1.65"/><path d="m44.1171582 16.845875c-.0598259 0-.1202531.0051108-.180981.0156329-.5760126.0992089-.9626266.646962-.8631171 1.2229747.0886867.5149842.5360285.8784494 1.0416931.8784494.0595253 0 .1202531-.0051108.180981-.0153323.5760126-.0995095.9623259-.646962.8631171-1.2229747-.0886867-.5152848-.5360285-.87875-1.0416931-.87875" fill="#162842"/><path d="m51.1604462 16.845875c-.0598259 0-.1202532.0051108-.1812816.0156329-.5760127.0992089-.962326.646962-.8631171 1.2229747.0889873.5149842.5363291.8784494 1.0419936.8784494.0595254 0 .1202532-.0051108.1809811-.0153323.5760126-.0995095.9623259-.646962.863117-1.2229747-.0886867-.5152848-.5360284-.87875-1.041693-.87875" fill="#162842"/><path d="m42.1188513 21.1116756s4.9390981 3.8414874 11.1327373 0" stroke="#162842" stroke-linecap="round" stroke-linejoin="round" stroke-width="1.65"/><g fill="#162842"><path d="m41.2050775 72.8939509c-.5844303 0-1.0585284.4737975-1.0585284 1.0585285 0 .5844304.4740981 1.0582279 1.0585284 1.0582279.5844304 0 1.0585285-.4737975 1.0585285-1.0582279 0-.584731-.4740981-1.0585285-1.0585285-1.0585285"/><path d="m46.1396661 74.8146044c-.5844303 0-1.0585284.4737975-1.0585284 1.0585285 0 .5844304.4740981 1.0582279 1.0585284 1.0582279.5844304 0 1.0582279-.4737975 1.0582279-1.0582279 0-.584731-.4737975-1.0585285-1.0582279-1.0585285"/><path d="m15.5910934 43.7166851c-.5844304 0-1.0585285.4737975-1.0585285 1.0585285 0 .5844304.4740981 1.0582279 1.0585285 1.0582279.5844303 0 1.0585284-.4737975 1.0585284-1.0582279 0-.584731-.4740981-1.0585285-1.0585284-1.0585285"/><path d="m22.2057389 43.0110696c-.5844304 0-1.0585285.4737975-1.0585285 1.0585285 0 .5844304.4740981 1.0582278 1.0585285 1.0582278s1.0585285-.4737974 1.0585285-1.0582278c0-.584731-.4740981-1.0585285-1.0585285-1.0585285"/></g><path d="m13.8644984 49.0383987s6.3421519 3.2756962 10.2227215-1.370886" stroke="#162842" stroke-linecap="round" stroke-linejoin="round" stroke-width="1.65"/><path d="m38.2577627 76.4877468s.1277689.6947627.8769462 1.6005697c.6520727.789462 1.513386 1.3750949 2.4648892 1.7532911 1.3438291.5345253 3.5928639 1.1303797 5.5048892.1948101" stroke="#162842" stroke-linecap="round" stroke-linejoin="round" stroke-width="1.65"/></g></svg>

<?xml version="1.0" encoding="UTF-8"?>
<svg width="95px" height="95px" viewBox="0 0 95 95" version="1.1" xmlns="http://www.w3.org/2000/svg" xmlns:xlink="http://www.w3.org/1999/xlink">
    <!-- Generator: Sketch 51.2 (57519) - http://www.bohemiancoding.com/sketch -->
    <title>Group 43@3x</title>
    <desc>Created with Sketch.</desc>
    <defs></defs>
    <g id="Future-Project-Desktop" stroke="none" stroke-width="1" fill="none" fill-rule="evenodd">
        <g id="Future-Camp" transform="translate(-673.000000, -1256.000000)">
            <g id="Group-43" transform="translate(673.000000, 1256.000000)">
                <path d="M82.3973481,46.2964462 C83.1546424,65.4810348 68.216193,81.6469684 49.0316044,82.403962 C29.8470158,83.1612563 13.6807816,68.2231076 12.923788,49.038519 C12.1664937,29.8539304 27.104943,13.6879968 46.2895316,12.9307025 C65.4741203,12.1734082 81.6400538,27.1118576 82.3973481,46.2964462 Z" id="Stroke-1" stroke="#162842" stroke-width="2.1" stroke-linecap="round" stroke-linejoin="round"></path>
                <path d="M47.6605981,27.3082911 C44.2141424,27.3082911 40.9739209,25.9662658 38.5369905,23.5293354 C36.1000601,21.0924051 34.7580348,17.8524842 34.7580348,14.4060285 C34.7580348,10.9592722 36.1000601,7.71935127 38.5369905,5.28242089 C40.9739209,2.84549051 44.2141424,1.50346519 47.6605981,1.50346519 C51.1070538,1.50346519 54.3469747,2.84549051 56.7839051,5.28242089 C59.2211361,7.71935127 60.5631614,10.9592722 60.5631614,14.4060285 C60.5631614,17.8524842 59.2211361,21.0924051 56.7839051,23.5293354 C54.3469747,25.9662658 51.1070538,27.3082911 47.6605981,27.3082911" id="Fill-3" fill="#5CD8FF"></path>
                <path d="M47.6605981,0.000150316456 C43.8127975,0.000150316456 40.194981,1.49850475 37.4742532,4.21953323 C31.8572278,9.83625791 31.8575285,18.9754984 37.4742532,24.5922231 C40.194981,27.3132516 43.8127975,28.811606 47.6605981,28.811606 C51.5083987,28.811606 55.1262152,27.3132516 57.846943,24.5922231 C63.4636677,18.9754984 63.4636677,9.83625791 57.846943,4.21953323 C55.1262152,1.49850475 51.5083987,0.000150316456 47.6605981,0.000150316456 M47.6605981,3.00647943 C50.5779399,3.00647943 53.4952816,4.11942247 55.7211677,6.34530854 C60.1729399,10.7970807 60.1729399,18.0146756 55.7211677,22.4664478 C53.4952816,24.6923339 50.5779399,25.8052769 47.6605981,25.8052769 C44.7432563,25.8052769 41.8259146,24.6923339 39.6000285,22.4664478 C35.1482563,18.0146756 35.1482563,10.7970807 39.6000285,6.34530854 C41.8259146,4.11942247 44.7432563,3.00647943 47.6605981,3.00647943" id="Fill-5" fill="#FFFFFF"></path>
                <path d="M80.4595285,60.1074921 C77.0130728,60.1074921 73.7731519,58.7654668 71.3362215,56.3285364 C66.3054304,51.2974446 66.3054304,43.1121123 71.3362215,38.0816218 C73.7731519,35.6446915 77.0130728,34.3023655 80.4595285,34.3023655 C83.9059842,34.3023655 87.1462057,35.6446915 89.5831361,38.0816218 C94.6136266,43.1121123 94.6136266,51.2974446 89.5831361,56.3285364 C87.1462057,58.7654668 83.9059842,60.1074921 80.4595285,60.1074921" id="Fill-7" fill="#5CD8FF"></path>
                <path d="M80.4595285,32.799231 C76.6117278,32.799231 72.9939114,34.2975854 70.2731835,37.0186139 C67.5521551,39.7393418 66.0538006,43.3571582 66.0538006,47.2049589 C66.0538006,51.0527595 67.5521551,54.6702753 70.2731835,57.3913038 C72.9939114,60.1123323 76.6117278,61.6106867 80.4595285,61.6106867 C84.3073291,61.6106867 87.9251456,60.1123323 90.6458734,57.3913038 C93.3669019,54.6702753 94.8652563,51.0527595 94.8652563,47.2049589 C94.8652563,43.3571582 93.3669019,39.7393418 90.6458734,37.0186139 C87.9251456,34.2975854 84.3073291,32.799231 80.4595285,32.799231 M80.4595285,35.8055601 C83.3768703,35.8055601 86.294212,36.9185032 88.5200981,39.1443892 C92.9718703,43.5961614 92.9718703,50.8137563 88.5200981,55.2655285 C86.294212,57.4914146 83.3768703,58.6043576 80.4595285,58.6043576 C77.5421867,58.6043576 74.6248449,57.4914146 72.3989589,55.2655285 C67.9471867,50.8137563 67.9471867,43.5961614 72.3989589,39.1443892 C74.6248449,36.9185032 77.5421867,35.8055601 80.4595285,35.8055601" id="Fill-9" fill="#FFFFFF"></path>
                <path d="M14.3989937,60.8050807 C10.952538,60.8050807 7.71231646,59.4630554 5.27538608,57.026125 C2.8384557,54.5891946 1.49643038,51.3492737 1.49643038,47.902818 C1.49643038,44.4560617 2.8384557,41.2161408 5.27538608,38.7792104 C7.71231646,36.3422801 10.952538,35.0002547 14.3989937,35.0002547 C17.8454494,35.0002547 21.0853703,36.3422801 23.5223006,38.7792104 C25.9595316,41.2161408 27.301557,44.4560617 27.301557,47.902818 C27.301557,51.3492737 25.9595316,54.5891946 23.5223006,57.026125 C21.0853703,59.4630554 17.8454494,60.8050807 14.3989937,60.8050807" id="Fill-11" fill="#5CD8FF"></path>
                <path d="M14.3989937,33.4969399 C10.551193,33.4969399 6.93337658,34.9952943 4.21264873,37.7163228 C-1.40407595,43.3330475 -1.40407595,52.472288 4.21264873,58.0890127 C6.93337658,60.8100411 10.551193,62.3083956 14.3989937,62.3083956 C18.2467943,62.3083956 21.8646108,60.8100411 24.5853386,58.0890127 C30.2020633,52.472288 30.2020633,43.3330475 24.5853386,37.7163228 C21.8646108,34.9952943 18.2467943,33.4969399 14.3989937,33.4969399 M14.3989937,36.503269 C17.3163354,36.503269 20.2336772,37.616212 22.4595633,39.8420981 C26.9113354,44.2938703 26.9113354,51.5114652 22.4595633,55.9632373 C20.2336772,58.1891234 17.3163354,59.3020665 14.3989937,59.3020665 C11.4816519,59.3020665 8.56431013,58.1891234 6.33842405,55.9632373 C1.8866519,51.5114652 1.8866519,44.2938703 6.33842405,39.8420981 C8.56431013,37.616212 11.4816519,36.503269 14.3989937,36.503269" id="Fill-13" fill="#FFFFFF"></path>
                <path d="M47.1980744,93.3689763 C43.7516187,93.3689763 40.5113972,92.0269509 38.0744668,89.5900206 C33.0436756,84.5589288 33.0439763,76.3735965 38.0744668,71.3434066 C40.5113972,68.9061756 43.7516187,67.5641503 47.1980744,67.5641503 C50.6445301,67.5641503 53.8844509,68.9061756 56.321682,71.3434066 C61.3521725,76.3735965 61.3521725,84.5589288 56.321682,89.5900206 C53.8844509,92.0269509 50.6445301,93.3689763 47.1980744,93.3689763" id="Fill-15" fill="#5CD8FF"></path>
                <path d="M47.1980744,66.0608655 C43.3502737,66.0608655 39.7324573,67.5592199 37.0117294,70.2802484 C34.2907009,73.0009763 32.7923465,76.6187927 32.7923465,80.4662927 C32.7923465,84.314394 34.2907009,87.9319098 37.0117294,90.6529383 C39.7324573,93.3736661 43.3502737,94.8720206 47.1980744,94.8720206 C51.045875,94.8720206 54.6636915,93.3736661 57.3844193,90.6526377 C60.1054478,87.9319098 61.6038022,84.314394 61.6038022,80.4662927 C61.6038022,76.6187927 60.1054478,73.0009763 57.3844193,70.2802484 C54.6636915,67.5592199 51.045875,66.0608655 47.1980744,66.0608655 M47.1980744,69.0671946 C50.1154161,69.0671946 53.0327579,70.1801377 55.258644,72.4060237 C59.7104161,76.8577959 59.7104161,84.0753908 55.258644,88.527163 C53.0327579,90.7527484 50.1154161,91.8656915 47.1980744,91.8656915 C44.2807326,91.8656915 41.3633908,90.7527484 39.1375047,88.527163 C34.6857326,84.0753908 34.6857326,76.8577959 39.1375047,72.4060237 C41.3633908,70.1801377 44.2807326,69.0671946 47.1980744,69.0671946" id="Fill-17" fill="#FFFFFF"></path>
                <path d="M75.1638196,39.9100411 C74.5793892,39.9100411 74.1052911,40.3838386 74.1052911,40.9685696 C74.1052911,41.5526994 74.5793892,42.0267975 75.1638196,42.0267975 C75.74825,42.0267975 76.2223481,41.5526994 76.2223481,40.9685696 C76.2223481,40.3838386 75.74825,39.9100411 75.1638196,39.9100411" id="Fill-19" fill="#162842"></path>
                <path d="M80.8124114,40.9684193 C80.227981,40.9684193 79.7538829,41.4422168 79.7538829,42.0269478 C79.7538829,42.6110775 80.227981,43.0851756 80.8124114,43.0851756 C81.3968418,43.0851756 81.8709399,42.6110775 81.8709399,42.0269478 C81.8709399,41.4422168 81.3968418,40.9684193 80.8124114,40.9684193" id="Fill-21" fill="#162842"></path>
                <path d="M72.3057627,44.5397579 C72.3057627,44.5397579 75.9870127,48.629568 83.6206835,46.3742199" id="Stroke-23" stroke="#162842" stroke-width="1.65" stroke-linecap="round" stroke-linejoin="round"></path>
                <path d="M44.1171582,16.845875 C44.0573323,16.845875 43.9969051,16.8509858 43.9361772,16.8615079 C43.3601646,16.9607168 42.9735506,17.5084699 43.0730601,18.0844826 C43.1617468,18.5994668 43.6090886,18.962932 44.1147532,18.962932 C44.1742785,18.962932 44.2350063,18.9578212 44.2957342,18.9475997 C44.8717468,18.8480902 45.2580601,18.3006377 45.1588513,17.724625 C45.0701646,17.2093402 44.6228228,16.845875 44.1171582,16.845875" id="Fill-25" fill="#162842"></path>
                <path d="M51.1604462,16.845875 C51.1006203,16.845875 51.040193,16.8509858 50.9791646,16.8615079 C50.4031519,16.9607168 50.0168386,17.5084699 50.1160475,18.0844826 C50.2050348,18.5994668 50.6523766,18.962932 51.1580411,18.962932 C51.2175665,18.962932 51.2782943,18.9578212 51.3390222,18.9475997 C51.9150348,18.8480902 52.3013481,18.3006377 52.2021392,17.724625 C52.1134525,17.2093402 51.6661108,16.845875 51.1604462,16.845875" id="Fill-27" fill="#162842"></path>
                <path d="M42.1188513,21.1116756 C42.1188513,21.1116756 47.0579494,24.953163 53.2515886,21.1116756" id="Stroke-29" stroke="#162842" stroke-width="1.65" stroke-linecap="round" stroke-linejoin="round"></path>
                <path d="M41.2050775,72.8939509 C40.6206472,72.8939509 40.1465491,73.3677484 40.1465491,73.9524794 C40.1465491,74.5369098 40.6206472,75.0107073 41.2050775,75.0107073 C41.7895079,75.0107073 42.263606,74.5369098 42.263606,73.9524794 C42.263606,73.3677484 41.7895079,72.8939509 41.2050775,72.8939509" id="Fill-31" fill="#162842"></path>
                <path d="M46.1396661,74.8146044 C45.5552358,74.8146044 45.0811377,75.2884019 45.0811377,75.8731329 C45.0811377,76.4575633 45.5552358,76.9313608 46.1396661,76.9313608 C46.7240965,76.9313608 47.197894,76.4575633 47.197894,75.8731329 C47.197894,75.2884019 46.7240965,74.8146044 46.1396661,74.8146044" id="Fill-33" fill="#162842"></path>
                <path d="M15.5910934,43.7166851 C15.006663,43.7166851 14.5325649,44.1904826 14.5325649,44.7752136 C14.5325649,45.359644 15.006663,45.8334415 15.5910934,45.8334415 C16.1755237,45.8334415 16.6496218,45.359644 16.6496218,44.7752136 C16.6496218,44.1904826 16.1755237,43.7166851 15.5910934,43.7166851" id="Fill-35" fill="#162842"></path>
                <path d="M22.2057389,43.0110696 C21.6213085,43.0110696 21.1472104,43.4848671 21.1472104,44.0695981 C21.1472104,44.6540285 21.6213085,45.1278259 22.2057389,45.1278259 C22.7901693,45.1278259 23.2642674,44.6540285 23.2642674,44.0695981 C23.2642674,43.4848671 22.7901693,43.0110696 22.2057389,43.0110696" id="Fill-37" fill="#162842"></path>
                <path d="M13.8644984,49.0383987 C13.8644984,49.0383987 20.2066503,52.3140949 24.0872199,47.6675127" id="Stroke-39" stroke="#162842" stroke-width="1.65" stroke-linecap="round" stroke-linejoin="round"></path>
                <path d="M38.2577627,76.4877468 C38.2577627,76.4877468 38.3855316,77.1825095 39.1347089,78.0883165 C39.7867816,78.8777785 40.6480949,79.4634114 41.5995981,79.8416076 C42.9434272,80.3761329 45.192462,80.9719873 47.1044873,80.0364177" id="Stroke-41" stroke="#162842" stroke-width="1.65" stroke-linecap="round" stroke-linejoin="round"></path>
            </g>
        </g>
    </g>
</svg>
